usr/share/icons/biglinux-icons-material/scalable/apps/ms-office.svg

<?xml version="1.0" encoding="UTF-8" standalone="no"?>
<!-- Created with Inkscape (http://www.inkscape.org/) -->

<svg
   width="24"
   height="24"
   viewBox="0 0 6.3499999 6.3500002"
   version="1.1"
   id="svg5"
   xml:space="preserve"
   sodipodi:docname="org.o20.svg"
   inkscape:version="1.3 (0e150ed6c4, 2023-07-21)"
   xmlns:inkscape="http://www.inkscape.org/namespaces/inkscape"
   xmlns:sodipodi="http://sodipodi.sourceforge.net/DTD/sodipodi-0.dtd"
   xmlns="http://www.w3.org/2000/svg"
   xmlns:svg="http://www.w3.org/2000/svg"><sodipodi:namedview
     id="namedview7"
     pagecolor="#ffffff"
     bordercolor="#000000"
     borderopacity="0.25"
     inkscape:showpageshadow="2"
     inkscape:pageopacity="0.0"
     inkscape:pagecheckerboard="0"
     inkscape:deskcolor="#d1d1d1"
     inkscape:document-units="mm"
     showgrid="false"
     inkscape:zoom="18.121928"
     inkscape:cx="-6.3459031"
     inkscape:cy="14.871486"
     inkscape:window-width="2560"
     inkscape:window-height="998"
     inkscape:window-x="0"
     inkscape:window-y="0"
     inkscape:window-maximized="1"
     inkscape:current-layer="svg5" /><defs
     id="defs2"><radialGradient
       id="paint0_radial_1_41"
       cx="0"
       cy="0"
       r="1"
       gradientUnits="userSpaceOnUse"
       gradientTransform="matrix(0,2.9104166,-2.9104166,0,3.1749967,0.26458725)"><stop
         stop-color="#F08C85"
         id="stop283"
         offset="0"
         style="stop-color:#e5826c;stop-opacity:1;" /><stop
         offset="1"
         stop-color="#E84F43"
         id="stop285"
         style="stop-color:#e14b28;stop-opacity:1;" /></radialGradient></defs><path
     fill-rule="evenodd"
     clip-rule="evenodd"
     d="M 2.538949,0.29464127 C 2.570657,0.2949773 2.600965,0.29094027 2.629873,0.28252337 3.0097642,0.25763827 3.3896,0.25864757 3.7694359,0.28555237 4.1138442,0.31238687 4.4472458,0.38711048 4.7696142,0.50972368 5.3055541,0.73037034 5.6722931,1.1130795 5.8697781,1.6578461 5.9827288,1.9858314 6.0494038,2.3231011 6.0698296,2.6696497 6.0980606,3.10481 6.0879536,3.5390176 6.0395086,3.9722729 6.0032606,4.2767818 5.9244413,4.5696226 5.8031034,4.8507689 5.5780488,5.3382637 5.2133472,5.6745226 4.7089985,5.8595457 4.3002965,5.9976318 3.8800322,6.0703393 3.4481793,6.0776418 2.9624309,6.1029098 2.4815586,6.0665558 2.0055308,5.968607 1.1293419,5.7734238 0.58885107,5.2392301 0.38406037,4.3660787 c -0.08691,-0.393065 -0.126307,-0.790919 -0.118202,-1.1935619 -0.0097,-0.4281487 0.03576,-0.8502412 0.136387,-1.2662667 C 0.61692867,1.0898438 1.1351919,0.58394198 1.957038,0.38854983 2.1485407,0.34173183 2.342512,0.31042893 2.538949,0.29464127 Z"
     fill="url(#paint0_radial_1_41)"
     id="path279"
     style="fill:url(#paint0_radial_1_41);stroke-width:0.264583" /><path
     d="M 2.678293,4.5722362 A 100.90446,100.90446 0 0 1 1.7585792,4.2464363 c -0.00203,-0.00203 -0.00244,-0.00487 -0.00122,-0.00609 0.00162,-0.00121 0.4163899,0.046311 0.9221507,0.1056205 0.6975044,0.082059 0.8364367,0.1068399 0.8392803,0.1015585 0.00568,-0.00813 0.00568,-2.4118111 0,-2.4203424 -0.00609,-0.00934 -1.1862036,0.2664898 -1.1967658,0.279489 -0.00528,0.00732 -0.0069,0.1807743 -0.0069,0.8250615 0,0.6467246 -0.00162,0.8173429 -0.0069,0.8214052 -0.010562,0.00813 -0.5809147,0.2733955 -0.5890391,0.2733955 -0.00568,0 -0.0065,-0.2104292 -0.00568,-1.0440211 L 1.7151353,2.138494 2.4349817,1.8785037 3.3811011,1.5368613 3.6069674,1.4552083 4.1147597,1.614046 c 0.279489,0.087746 0.5110425,0.1608689 0.5151048,0.1633059 0.00568,0.00325 0.0069,0.2912699 0.0069,1.4088197 0,1.3316348 -4.274e-4,1.4043508 -0.00975,1.4092255 -0.017062,0.00894 -1.0086792,0.2993945 -1.020866,0.2993945 -0.0065,0 -0.4241084,-0.1454319 -0.9278388,-0.3225498 z"
     fill="#ffffff"
     id="path6019"
     style="stroke-width:9.79022" /></svg>

<svg xmlns="http://www.w3.org/2000/svg" xml:space="preserve" width="24" height="24" viewBox="0 0 6.35 6.35"><defs><radialGradient id="a" cx="0" cy="0" r="1" gradientTransform="matrix(0 2.91042 -2.91042 0 3.175 .265)" gradientUnits="userSpaceOnUse"><stop offset="0" stop-color="#F08C85" style="stop-color:#e5826c;stop-opacity:1"/><stop offset="1" stop-color="#E84F43" style="stop-color:#e14b28;stop-opacity:1"/></radialGradient></defs><path fill="url(#a)" fill-rule="evenodd" d="M2.539.295a.312.312 0 0 0 .09-.012c.38-.025.76-.024 1.14.003.345.026.678.101 1 .224.537.22.903.603 1.1 1.148.114.328.18.665.2 1.012.03.435.019.869-.03 1.302a3.143 3.143 0 0 1-.236.879A1.87 1.87 0 0 1 4.71 5.86c-.409.138-.829.21-1.26.218a5.668 5.668 0 0 1-1.443-.11C1.129 5.774.589 5.24.384 4.367a5.04 5.04 0 0 1-.118-1.193c-.01-.429.036-.85.136-1.267C.617 1.09 1.135.584 1.957.39c.192-.047.386-.079.582-.094Z" clip-rule="evenodd" style="fill:url(#a);stroke-width:.264583"/><path fill="#fff" d="M2.678 4.572a100.904 100.904 0 0 1-.92-.326c-.001-.002-.002-.004 0-.006l.922.106c.697.082.836.107.839.102.005-.009.005-2.412 0-2.42-.006-.01-1.186.266-1.197.279-.005.007-.007.18-.007.825 0 .646-.001.817-.007.821-.01.008-.58.274-.589.274-.005 0-.006-.21-.005-1.044l.001-1.045.72-.26.946-.341.226-.082.508.159c.28.088.51.16.515.163.006.004.007.292.007 1.41 0 1.33 0 1.404-.01 1.408-.017.01-1.009.3-1.02.3-.007 0-.425-.146-.929-.323z" style="stroke-width:9.79022"/></svg>
